X: 1
T: Under the Sea (Flute)
M: 4/4
L: 1/8
Q:1/4=200
K:Bb
z8|z8|z8|z/c/d c_B cB fd/z/|:df Bd zd zB|
cz _ez dz Bz|Bd fb zb zc|az c'z b/c'/b/c'/ b/c'/b|z8|z8|z8|]